X: 61
T:Kilavel Jig
M:6/8
L:1/8
Q:120
K:Em
"Em"B2E GFE|BAB edB|"D"AFF DFF|AFA dBA|
"Em"B2E GFE|BAB edB|"D"AFA dAF|"Em"EFE E3::
"Em"Bef g2e|"D"f2d "Em"edB|"D"AFF DFF|AFA dBA|
"Em"Bef g2e|"D"faf "Em"edB|"D"AFA dAF|"Em"EFE E3:||
% Output from ABC2Win  Version 2.1 h on 1/5/99
